X:99007
T:Lady Catherine Bruce's Reel
P:The Laird o' Cockpen
C:Traditional
R:Jig (8x32)
B:RSCDS Gr-7
Z:Anselm Lingnau <anselm@strathspey.org>
M:6/8
L:1/8
K:Gm
D|"Gm"G>AG B2"C7"B|"F"A>FF F2A|"Gm"G>AG g2g|"Dm"f<dd d2e|
  "Bb"fBd fed|"Cm"c>d"C7"B "F"A2B/c/|"Gm"d>ed "D7"d2c|"Gm"B>GG [G2B,2]||
d|"Gm"g2g g>a"C7"b|"F"a<ff f2a|"Gm"gBd g>ag|"Dm"f<dd d2d/e/|
  "Bb"fBd "F"f>e"Gm"d|"Cm"c>d"C7"B "F"A2B/c/|"Gm"d>ed "D7"[d2^F2]c|\
        "Gm"B<GG [G2B,2]|]

